X: 9
T: Missa Ecce ancilla domini / Sanctus
N: Derived from Duf1003d-Missa_Ecce_ancilla_domini-Sanctus.krn
C: Guillaume Du Fay
%%abc-version 2.0
%%abcx-abcm2ps-target-version 5.9.1 (29 Sep 2008)
%%abc-creator hum2abc beta
%%abcx-conversion-date 2019/02/16 20:31:46
%%abc-edited-by Alejandro Planchart, Jesse Rodin
%%abc-edited-by Alejandro, Planchart
%%abcx-initial-encoding-date 2014/07/25/
%%humdrum-veritas 930307294
%%humdrum-veritas-data 2373983258
%%linebreak <none>
%%barnumbers 0
L: 1/4
M: 3/1
Q: 1/2=120
%%staves [1 2 3 4]
V: 1 clef=treble
V: 2 clef=treble-8
V: 3 clef=treble-8
V: 4 clef=bass
K: F
[V:1] G12 | 
[V:2] G6A2=B4 | 
[V:3] z12 | 
[V:4] G,4E,2F,2G,4 | 
[V:1] E4F6E2 | 
[V:2] c4d6c2 | 
[V:3] z12 | 
[V:4] C,4B,,8 | 
[V:1] E4A6G2 | 
[V:2] c8c4 | 
[V:3] z12 | 
[V:4] C,6A,,3B,,C,2 | 
[V:1] G6^F2F2E2 | 
[V:2] =B4A8 | 
[V:3] z12 | 
[V:4] G,,4D,8 | 
[V:1] G4E3CD4 | 
[V:2] G4z4G4 | 
[V:3] z12 | 
[V:4] E,4C,4z2B,,2 | 
[V:1] C4z2F2E2C2 | 
[V:2] E3CD4C4 | 
[V:3] z12 | 
[V:4] C,2A,,2B,,4C,2_E,2 | 
[V:1] D4C2C4=B,2 | 
[V:2] z2F2E2C2D4 | 
[V:3] z12 | 
[V:4] D,2B,,2C,2A,,2G,,4 | 
[V:1] C4z2C2D2E2- | 
[V:2] C8z4 | 
[V:3] z12 | 
[V:4] G,8G,4 | 
[V:1] ED2=B,CDB,2E4 | 
[V:2] G4F2G4E2 | 
[V:3] z12 | 
[V:4] G,,2B,,2A,,2G,,2C,4 | 
[V:1] D4=B,2D2C2A,2 | 
[V:2] F2G3FG2A2^F2 | 
[V:3] z12 | 
[V:4] D,2G,,4B,,2A,,4 | 
[V:1] =B,2G,2z2GA=BA/B/c2- | 
[V:2] G4=B3cd2e2 | 
[V:3] z12 | 
[V:4] G,,4G,3F,D,2C,2- | 
[V:1] cA=B2A2G2^FF2E | 
[V:2] c2d3c=B2A4 | 
[V:3] z12 | 
[V:4] C,2G,2F,2G,2D,4 | 
[V:1] G8z4 | 
[V:2] G4z2c2=B2G2 | 
[V:3] z12 | 
[V:4] G,,4C,4G,,4 | 
[V:1] c2=B2G2A2G3E | 
[V:2] A2G3EF2G2C2 | 
[V:3] z12 | 
[V:4] z12 | 
[V:1] F2G2C2D2E3F | 
[V:2] D2E4F2E2A2 | 
[V:3] z12 | 
[V:4] z12 | 
[V:1] EDFEDCC4=B,2 | 
[V:2] G2F4E2D4 | 
[V:3] z12 | 
[V:4] z12 | 
[V:1] C4z4z4 | 
[V:2] C12 | 
[V:3] G12- | 
[V:4] z12 | 
[V:1] E6F2G4 | 
[V:2] z12 | 
[V:3] G12 | 
[V:4] C,6D,2E,4 | 
[V:1] E2G2F2A4G2 | 
[V:2] G4A8 | 
[V:3] c12 | 
[V:4] C,4F,6E,2 | 
[V:1] E2F2G4z2G2 | 
[V:2] G4C3DE4 | 
[V:3] c8=B4 | 
[V:4] C,4E,2F,2G,4 | 
[V:1] F2D4E2C2D2- | 
[V:2] F4G2E4D2 | 
[V:3] A4G8 | 
[V:4] D,4G,,2C,4B,,2 | 
[V:1] D2C2D4z4 | 
[V:2] ^F3EG4D4 | 
[V:3] A4=B8 | 
[V:4] A,,4G,,8 | 
[V:1] D4F2G2A4 | 
[V:2] z4d6c2 | 
[V:3] A12 | 
[V:4] D,6E,2F,4 | 
[V:1] G4F6E2 | 
[V:2] c4d2A2=B4 | 
[V:3] z12 | 
[V:4] E,4D,8 | 
[V:1] E4G3FD4 | 
[V:2] c4d4z2G2 | 
[V:3] G8G4 | 
[V:4] C,4z2G,,4B,,2 | 
[V:1] z2D3CD2E2C2 | 
[V:2] A2=B4A2c4 | 
[V:3] F2G2D2F2E4 | 
[V:4] A,,2G,,4D,2C,4 | 
[V:1] D4G4z2G2 | 
[V:2] =B4d8 | 
[V:3] D2G4F2G4 | 
[V:4] G,,4z4G,,4 | 
[V:1] F2A3GF2E4 | 
[V:2] d4A2=B2c4 | 
[V:3] A4F4G4- | 
[V:4] D,8C,4 | 
[V:1] z2G2F2G2A4 | 
[V:2] =B4A8 | 
[V:3] G4c8 | 
[V:4] E,4F,8 | 
[V:1] D2G2A2^F4E2 | 
[V:2] z4d8 | 
[V:3] =B4A8 | 
[V:4] G,4D,8 | 
[V:1] G2z2E2G3FD2- | 
[V:2] d4c4=B3c | 
[V:3] G12- | 
[V:4] G,,4C,4G,,4 | 
[V:1] D2C2E2F2G4- | 
[V:2] d2e4d2=B3A | 
[V:3] G12 | 
[V:4] z2C,4D,2E,4 | 
[V:1] G2E2E8 ||  
[V:2] c12 ||  
[V:3] G12 ||  
[V:4] C,12 ||  
[V:1]  [K:C] [K:clef=treble][M:3/1]C4E2F2G4- | 
[V:2]  [K:C] [K:clef=treble-8][M:3/1]c8c4 | 
[V:3]  [K:C] [K:clef=treble][M:3/1]z12 | 
[V:4]  [K:C] [K:clef=treble-8][M:3/1]z12 | 
[V:1] G2F2G2E2D4 | 
[V:2] G2A2G2c4B2 | 
[V:3] z12 | 
[V:4] z12 | 
[V:1] C3A,B,2C2A,4 | 
[V:2] c4d2e3dc2 | 
[V:3] z12 | 
[V:4] z12 | 
[V:1] G,8z2C2 | 
[V:2] B2d3cB2A4 | 
[V:3] z12 | 
[V:4] z12 | 
[V:1] B,2D3CB,2A,3G, | 
[V:2] G8^F4 | 
[V:3] z12 | 
[V:4] z12 | 
[V:1] G,4z2C3B,C2 | 
[V:2] G4C4E4 | 
[V:3] z12 | 
[V:4] z12 | 
[V:1] D2E2DE2GFEG2- | 
[V:2] F2E2G4A2G2 | 
[V:3] z12 | 
[V:4] z12 | 
[V:1] GFG2A3GFDE2 | 
[V:2] B4c2d3Bc2 | 
[V:3] z12 | 
[V:4] z12 | 
[V:1] F2D4G3^FFE | 
[V:2] d2DG2FG_BA4 | 
[V:3] z12 | 
[V:4] z12 | 
[V:1] G12 | 
[V:2] G4z4C4 | 
[V:3] z12 | 
[V:4] z12 | 
[V:1] z4z4C4 | 
[V:2] D4E8 | 
[V:3] z12 | 
[V:4] z12 | 
[V:1] D4E8 | 
[V:2] F4E2G4F2 | 
[V:3] z12 | 
[V:4] z12 | 
[V:1] F4E2G4F2 | 
[V:2] D4C8 | 
[V:3] z12 | 
[V:4] z12 | 
[V:1] D4C4z2C2 | 
[V:2] B,4C3DE2F2 | 
[V:3] z12 | 
[V:4] z12 | 
[V:1] B,2A,2C3DE2F2 | 
[V:2] D4C4z4 | 
[V:3] z12 | 
[V:4] z12 | 
[V:1] D4C2z2G4 | 
[V:2] G4A2c4B2 | 
[V:3] z12 | 
[V:4] z12 | 
[V:1] A2c2B2A4A2 | 
[V:2] A3FG2A2DF2G | 
[V:3] z12 | 
[V:4] z12 | 
[V:1] G2F3EE4D2 | 
[V:2] E2D2G4F4 | 
[V:3] z12 | 
[V:4] z12 | 
[V:1] E4z4E4- | 
[V:2] E8z4 | 
[V:3] z12 | 
[V:4] z12 | 
[V:1] E2G3FEDD4- | 
[V:2] E6G4F2 | 
[V:3] z12 | 
[V:4] z12 | 
[V:1] D2F3EDCC4 | 
[V:2] D6F4E2 | 
[V:3] z12 | 
[V:4] z12 | 
[V:1] z2E3FG2AG3/F/E | 
[V:2] C8c4 | 
[V:3] z12 | 
[V:4] z12 | 
[V:1] D4C4z2B,2- | 
[V:2] B2A2c3BG4 | 
[V:3] z12 | 
[V:4] z12 | 
[V:1] B,G,A,2B,2C2A,3G, | 
[V:2] z2F2G2E2^F4 | 
[V:3] z12 | 
[V:4] z12 | 
[V:1] G,4z4C3D | 
[V:2] G4C3DE2F2 | 
[V:3] z12 | 
[V:4] z12 | 
[V:1] E2F2G3FECD2 | 
[V:2] G2A2G2c3AB2 | 
[V:3] z12 | 
[V:4] z12 | 
[V:1] E2FE3/D/CB,2C2DC- | 
[V:2] c2A4G2E2F2- | 
[V:3] z12 | 
[V:4] z12 | 
[V:1] C/B,/A,B,2G,2C4B,2 | 
[V:2] F2G2C2E2D4 | 
[V:3] z12 | 
[V:4] z12 | 
[V:1] C12 ||  
[V:2] C12 ||  
[V:3] z12 ||  
[V:4] z12 ||  
[V:1]  [K:F] [K:clef=treble][M:3/1]G4D4G4- | 
[V:2]  [K:F] [K:clef=treble-8][M:3/1]G4=B2c2d4 | 
[V:3]  [K:F] [K:clef=treble-8][M:3/1]G12- | 
[V:4]  [K:F] [K:clef=bass][M:3/1]G,,12 | 
[V:1] G2E2G3FD4- | 
[V:2] e2c4=B2A4 | 
[V:3] G4E4F4 | 
[V:4] C,8D,4 | 
[V:1] D4z2E2D2F2 | 
[V:2] =B2G2d2c2A2=B2 | 
[V:3] G8F2D2 | 
[V:4] G,,4B,,2C,2D,4 | 
[V:1] E2C2D4z2A,2 | 
[V:2] c3A=B2G2^F^F2E | 
[V:3] E4D2D4C2 | 
[V:4] C,4G,,2B,,2A,,4 | 
[V:1] =B,2C2D4D4 | 
[V:2] G4G4G4 | 
[V:3] D8z4 | 
[V:4] G,,12 | 
[V:1] D4z4z2D2- | 
[V:2] z2A4G2=B4 | 
[V:3] D4C2E4D2 | 
[V:4] z12 | 
[V:1] D2C2E4D2F2- | 
[V:2] A2c4=B2d4 | 
[V:3] F4E2G4F2 | 
[V:4] z12 | 
[V:1] F2E2G4F2A2- | 
[V:2] c2e4d4e2- | 
[V:3] A4G2=B4c2 | 
[V:4] z12 | 
[V:1] AGE2D2G2E2^F2 | 
[V:2] e2A2=B2d2c4 | 
[V:3] A2c2=B2G2A4 | 
[V:4] z12 | 
[V:1] G4z2A4F2 | 
[V:2] d12 | 
[V:3] G4z4z4 | 
[V:4] G,,4D,8 | 
[V:1] G4E2F4D2 | 
[V:2] z2e4c2d4 | 
[V:3] z12 | 
[V:4] G,4A,4F,2G,2- | 
[V:1] E4C2D4=B,2 | 
[V:2] =B2c4A2=B4 | 
[V:3] z12 | 
[V:4] G,2E,2F,4D,2E,2- | 
[V:1] C4A,2=B,4G,2- | 
[V:2] G2A4F2G4 | 
[V:3] z12 | 
[V:4] E,2C,2D,4=B,,2C,2- | 
[V:1] G,2C2=B,2E2D2G2- | 
[V:2] E2F2G3FD4 | 
[V:3] z12 | 
[V:4] C,=B,,A,,2G,,2C,2=B,,2G,,2- | 
[V:1] GFD2EF2GE2A2 | 
[V:2] G4A2=B2c2A2 | 
[V:3] z12 | 
[V:4] G,,2=B,,2A,,2D,2C,2F,2 | 
[V:1] G2E3CC2D2=B,2 | 
[V:2] =B4G4F4 | 
[V:3] z12 | 
[V:4] E,2G,3F,E,2D,4 | 
[V:1] C12 ||  
[V:2] G12 ||  
[V:3] G4E2F2G4 ||  
[V:4] C,12 ||  
[V:1]  [K:C] [K:clef=treble][M:2/1]C8 | 
[V:2]  [K:C] [K:clef=treble-8][M:2/1]c8- | 
[V:3]  [K:C] [K:clef=treble][M:2/1]z8 | 
[V:4]  [K:C] [K:clef=treble-8][M:2/1]z8 | 
[V:1] E6F2 | 
[V:2] c8- | 
[V:3] z8 | 
[V:4] z8 | 
[V:1] G4A4 | 
[V:2] c8- | 
[V:3] z8 | 
[V:4] z8 | 
[V:1] G4E4- | 
[V:2] c8 | 
[V:3] z8 | 
[V:4] z8 | 
[V:1] E2D2D4- | 
[V:2] G8- | 
[V:3] z8 | 
[V:4] z8 | 
[V:1] D4B,4 | 
[V:2] G8 | 
[V:3] z8 | 
[V:4] z8 | 
[V:1] C4B,4 | 
[V:2] A4G4- | 
[V:3] z8 | 
[V:4] z8 | 
[V:1] A,8 | 
[V:2] G4^F4 | 
[V:3] z8 | 
[V:4] z8 | 
[V:1] G,8 | 
[V:2] G8 | 
[V:3] z8 | 
[V:4] z8 | 
[V:1] z4C4 | 
[V:2] C8 | 
[V:3] z8 | 
[V:4] z8 | 
[V:1] B,4A,2C2- | 
[V:2] G4A4- | 
[V:3] z8 | 
[V:4] z8 | 
[V:1] C2E2D2C2 | 
[V:2] A4B4 | 
[V:3] z8 | 
[V:4] z8 | 
[V:1] E4F4 | 
[V:2] A2c4d2 | 
[V:3] z8 | 
[V:4] z8 | 
[V:1] G4A4- | 
[V:2] e4c4 | 
[V:3] z8 | 
[V:4] z8 | 
[V:1] A2G2G4- | 
[V:2] d4B4 | 
[V:3] z8 | 
[V:4] z8 | 
[V:1] G4^F4 | 
[V:2] A8 | 
[V:3] z8 | 
[V:4] z8 | 
[V:1] G8- | 
[V:2] G8 | 
[V:3] z8 | 
[V:4] z8 | 
[V:1] G8 | 
[V:2] z8 | 
[V:3] z8 | 
[V:4] z8 | 
[V:1] z8 | 
[V:2] D4E4 | 
[V:3] z8 | 
[V:4] z8 | 
[V:1] z8 | 
[V:2] D2G4F2 | 
[V:3] z8 | 
[V:4] z8 | 
[V:1] D4E4 | 
[V:2] G6A2 | 
[V:3] z8 | 
[V:4] z8 | 
[V:1] D2G4^F2 | 
[V:2] B2c2A4 | 
[V:3] z8 | 
[V:4] z8 | 
[V:1] G6A2 | 
[V:2] G4E4- | 
[V:3] z8 | 
[V:4] z8 | 
[V:1] B2c2A4 | 
[V:2] E4F4 | 
[V:3] z8 | 
[V:4] z8 | 
[V:1] G4E4- | 
[V:2] E2G4C2- | 
[V:3] z8 | 
[V:4] z8 | 
[V:1] E4F4 | 
[V:2] C2E2D4 | 
[V:3] z8 | 
[V:4] z8 | 
[V:1] E2G4C2- | 
[V:2] C4z4 | 
[V:3] z8 | 
[V:4] z8 | 
[V:1] C2E2D4 | 
[V:2] c4B2A2 | 
[V:3] z8 | 
[V:4] z8 | 
[V:1] C4z4 | 
[V:2] c4d2e2- | 
[V:3] z8 | 
[V:4] z8 | 
[V:1] z4C4 | 
[V:2] e2c4A2 | 
[V:3] z8 | 
[V:4] z8 | 
[V:1] D2E4C2- | 
[V:2] B2c2A4 | 
[V:3] z8 | 
[V:4] z8 | 
[V:1] C2A,2B,2C2 | 
[V:2] z4E4 | 
[V:3] z8 | 
[V:4] z8 | 
[V:1] A,4C4 | 
[V:2] F6E2- | 
[V:3] z8 | 
[V:4] z8 | 
[V:1] B,4E4- | 
[V:2] E2G4A2 | 
[V:3] z8 | 
[V:4] z8 | 
[V:1] E4D4 | 
[V:2] G2E2F4 | 
[V:3] z8 | 
[V:4] z8 | 
[V:1] E8 | 
[V:2] E4z4 | 
[V:3] z8 | 
[V:4] z8 | 
[V:1] z2A2G2E2 | 
[V:2] c4B2A2- | 
[V:3] z8 | 
[V:4] z8 | 
[V:1] F2G4F2 | 
[V:2] A2G2E2F2 | 
[V:3] z8 | 
[V:4] z8 | 
[V:1] D2E2F4 | 
[V:2] G4F2D2 | 
[V:3] z8 | 
[V:4] z8 | 
[V:1] E2C2D2E2- | 
[V:2] E2F4E2 | 
[V:3] z8 | 
[V:4] z8 | 
[V:1] E2F2GFG2 | 
[V:2] C2D2E4 | 
[V:3] z8 | 
[V:4] z8 | 
[V:1] A2z2G2E2- | 
[V:2] F4G4 | 
[V:3] z8 | 
[V:4] z8 | 
[V:1] E2F2E2C2 | 
[V:2] A2F2G2E2 | 
[V:3] z8 | 
[V:4] z8 | 
[V:1] D2A,2B,2A,B, | 
[V:2] F4G4 | 
[V:3] z8 | 
[V:4] z8 | 
[V:1] C8 ||  
[V:2] C8 ||  
[V:3] z8 ||  
[V:4] z8 ||  
[V:1]  [K:F] [K:clef=treble][M:2/1]E8- | 
[V:2]  [K:F] [K:clef=treble-8][M:2/1]c8 | 
[V:3]  [K:F] [K:clef=treble-8][M:2/1]G8 | 
[V:4]  [K:F] [K:clef=bass][M:2/1]C,8- | 
[V:1] E8 | 
[V:2] c6=B2 | 
[V:3] G8 | 
[V:4] C,8 | 
[V:1] E8 | 
[V:2] A2G2G4 | 
[V:3] (3:2:2c8=B4 | 
[V:4] C,8 | 
[V:1] D4C4 | 
[V:2] F4E4 | 
[V:3] A4G4 | 
[V:4] D,4E,4 | 
[V:1] D4F4 | 
[V:2] D8 | 
[V:3] A8 | 
[V:4] F,6E,2 | 
[V:1] E4D3C | 
[V:2] E4F4 | 
[V:3] G4F4 | 
[V:4] C,4D,4 | 
[V:1] E8 | 
[V:2] E4C4 | 
[V:3] G4A4- | 
[V:4] C,4A,,4 | 
[V:1] D8 | 
[V:2] D8 | 
[V:3] A2G2G2F2 | 
[V:4] B,,8 | 
[V:1] C8 | 
[V:2] E8 | 
[V:3] A8 | 
[V:4] A,,8 | 
[V:1] D4E4 | 
[V:2] F4E4- | 
[V:3] z8 | 
[V:4] D,4C,4- | 
[V:1] C4D4 | 
[V:2] E2D2D4- | 
[V:3] G8 | 
[V:4] C,4B,,4 | 
[V:1] z4A,4 | 
[V:2] D4C4 | 
[V:3] F8 | 
[V:4] A,,8 | 
[V:1] =B,6C2 | 
[V:2] D4E4 | 
[V:3] G8 | 
[V:4] G,,8 | 
[V:1] A,8 | 
[V:2] F8 | 
[V:3] A8 | 
[V:4] D,6E,2 | 
[V:1] A8 | 
[V:2] D4F4 | 
[V:3] A6=B2 | 
[V:4] F,4D,4 | 
[V:1] G4F4 | 
[V:2] G4A4 | 
[V:3] c4d4- | 
[V:4] E,4F,4 | 
[V:1] D4E4 | 
[V:2] =B4G4 | 
[V:3] d2c2c4- | 
[V:4] G,4E,4 | 
[V:1] F6G2 | 
[V:2] A2F4E2 | 
[V:3] c4=B4 | 
[V:4] D,8 | 
[V:1] E8 | 
[V:2] G4z4 | 
[V:3] c8- | 
[V:4] C,8- | 
[V:1] z4C4 | 
[V:2] E2F2G4- | 
[V:3] c8 | 
[V:4] C,8 | 
[V:1] D4E2G2- | 
[V:2] G2F2E4 | 
[V:3] z8 | 
[V:4] G,,4C,4 | 
[V:1] G2F2E4 | 
[V:2] D4E4 | 
[V:3] z8 | 
[V:4] B,,4C,4 | 
[V:1] D8 | 
[V:2] F8 | 
[V:3] A4=B4 | 
[V:4] D,8 | 
[V:1] E6F2 | 
[V:2] G4E4 | 
[V:3] c4A4 | 
[V:4] C,8 | 
[V:1] D8 | 
[V:2] F4D4- | 
[V:3] A4G4 | 
[V:4] D,4B,,4 | 
[V:1] z4A,4 | 
[V:2] D4C4 | 
[V:3] F8 | 
[V:4] A,,8 | 
[V:1] =B,4C2D2- | 
[V:2] D8 | 
[V:3] G4G4- | 
[V:4] G,,8 | 
[V:1] D2C2A,4 | 
[V:2] z8 | 
[V:3] G4^F4 | 
[V:4] D,8 | 
[V:1] =B,4G,4 | 
[V:2] d8- | 
[V:3] G8- | 
[V:4] G,,8- | 
[V:1] z4=B,2C2 | 
[V:2] d8 | 
[V:3] G8 | 
[V:4] G,,8 | 
[V:1] D2E2D2G2- | 
[V:2] =B4G4 | 
[V:3] G8 | 
[V:4] z8 | 
[V:1] G2F2E2D2 | 
[V:2] d4c4 | 
[V:3] G4A4- | 
[V:4] z8 | 
[V:1] E4F2D2 | 
[V:2] A8 | 
[V:3] A2G2F4 | 
[V:4] z8 | 
[V:1] E2^C4=B,2 | 
[V:2] G6F2 | 
[V:3] E8 | 
[V:4] z8 | 
[V:1] D8 | 
[V:2] A4=B4 | 
[V:3] D8 | 
[V:4] z8 | 
[V:1] z8 | 
[V:2] A2d3cd2 | 
[V:3] F8 | 
[V:4] D,4F,4 | 
[V:1] z8 | 
[V:2] e2=B2^c2=B^c | 
[V:3] G8 | 
[V:4] E,8 | 
[V:1] z8 | 
[V:2] d4z4 | 
[V:3] A8 | 
[V:4] D,6E,2 | 
[V:1] z8 | 
[V:2] c2A2=B4- | 
[V:3] A4G4- | 
[V:4] F,4G,4 | 
[V:1] z8 | 
[V:2] B2c2=B2A2 | 
[V:3] G4G4 | 
[V:4] E,6C,2 | 
[V:1] z8 | 
[V:2] c4G2A2- | 
[V:3] G6E2 | 
[V:4] C,8 | 
[V:1] z8 | 
[V:2] A2=B2c3=B | 
[V:3] F4E4- | 
[V:4] D,4A,,4 | 
[V:1] z8 | 
[V:2] A2G2G4- | 
[V:3] E2D2D4- | 
[V:4] C,4B,,4 | 
[V:1] z8 | 
[V:2] G2^F2^F2E2 | 
[V:3] D4C4 | 
[V:4] A,,8 | 
[V:1] =B,6C2 | 
[V:2] G4z4 | 
[V:3] D8 | 
[V:4] G,,8- | 
[V:1] D4G4 | 
[V:2] =B8 | 
[V:3] z8 | 
[V:4] G,,8 | 
[V:1] F4A4- | 
[V:2] A8 | 
[V:3] F8 | 
[V:4] D,8 | 
[V:1] A2G2F4 | 
[V:2] d8 | 
[V:3] F8 | 
[V:4] z4D,4 | 
[V:1] E2G4F2 | 
[V:2] =B4c4 | 
[V:3] G8- | 
[V:4] E,4C,4 | 
[V:1] D4E4- | 
[V:2] d2=B4A2 | 
[V:3] G8 | 
[V:4] G,4E,4 | 
[V:1] E2C2C4- | 
[V:2] c2z2C4 | 
[V:3] G8- | 
[V:4] C,8 | 
[V:1] C2=B,2B,2A,2 | 
[V:2] D8 | 
[V:3] G8 | 
[V:4] G,,8 | 
[V:1] C8- | 
[V:2] E6C2 | 
[V:3] G8- | 
[V:4] C,8- | 
[V:1] C8 |]  
[V:2] C8 |]  
[V:3] G8 |]  
[V:4] C,8 |]  



